img/service-size-icon__07.svg

<svg width="23" height="25" viewBox="0 0 23 25" fill="none" xmlns="http://www.w3.org/2000/svg">
<path d="M22.0859 19.4348L21.2325 14.74C21.1843 14.4747 20.9301 14.2988 20.6648 14.3469C20.3994 14.3952 20.2235 14.6493 20.2717 14.9146L20.6361 16.9196L17.7222 17.2714C17.5333 15.7937 17.5383 15.5666 17.8938 13.8964L19.0754 8.34238L19.4862 10.6006C19.5291 10.8364 19.7346 11.0016 19.966 11.0016C19.995 11.0016 20.0245 10.999 20.054 10.9936C20.3194 10.9454 20.4953 10.6911 20.447 10.4258L19.505 5.248C19.5051 5.24829 19.505 5.24775 19.505 5.248C19.4123 4.55215 19.0377 4.00103 18.133 3.54209L14.9803 1.94346L14.227 0.28623C14.1478 0.111914 13.9739 0 13.7825 0H9.21364C9.02219 0 8.84841 0.111914 8.76911 0.286182L8.01575 1.94341L4.86306 3.54204C3.95823 4.00103 3.58381 4.55127 3.49133 5.24688C3.49128 5.24722 3.49114 5.24756 3.49109 5.2479L0.910228 19.4347C0.886155 19.5671 0.917747 19.7036 0.99763 19.8119C1.07746 19.9202 1.19846 19.9907 1.33205 20.0069L4.62234 20.4045L4.04895 22.9929C3.99822 23.222 4.11755 23.4548 4.33318 23.5473L7.62751 24.9604C7.79021 25.0302 7.9782 25.0064 8.11843 24.8981L11.4981 22.2885L14.8778 24.8982C14.9647 24.9653 15.07 25 15.1762 25C15.2413 25 15.3068 24.987 15.3686 24.9604L18.663 23.5473C18.8786 23.4548 18.9979 23.222 18.9472 22.993L18.3738 20.4046L21.6641 20.0069C21.7976 19.9908 21.9186 19.9203 21.9985 19.812C22.0783 19.7036 22.11 19.5672 22.0859 19.4348ZM14.5969 3.36548L15.3712 4.89922L14.3676 5.82993C14.2147 5.97168 14.1687 6.19482 14.253 6.38545L14.9441 7.94819L11.9864 12.0129V8.30752L14.5969 3.36548ZM9.528 0.976562H13.4681L14.0631 2.2853L11.4981 7.14111L8.93308 2.2853L9.528 0.976562ZM8.39919 3.36548L11.0098 8.30752V12.0129L8.05202 7.94814L8.74309 6.3854C8.82741 6.19478 8.78137 5.97163 8.62854 5.82988L7.62492 4.89917L8.39919 3.36548ZM3.92131 8.33945L5.10232 13.8965C5.45788 15.5666 5.46282 15.7937 5.27395 17.2714L2.36042 16.9196L3.92131 8.33945ZM1.96379 19.0996L2.18528 17.8821L5.1031 18.2343L4.83454 19.4465L1.96379 19.0996ZM7.7487 23.9499L5.08987 22.8093L5.69236 20.0897C5.6925 20.0891 5.69265 20.0884 5.6928 20.0878L6.17307 17.9198C6.17302 17.92 6.17312 17.9196 6.17307 17.9198C6.17409 17.9152 6.17473 17.91 6.17561 17.9053C6.17741 17.8958 6.17937 17.8862 6.18064 17.8766L6.20403 17.6952C6.26511 17.2226 6.31233 16.8562 6.34138 16.5364H8.34924C8.61887 16.5364 8.83752 16.3178 8.83752 16.0481C8.83752 15.7784 8.61887 15.5598 8.34924 15.5598H6.36379C6.33435 15.0797 6.23957 14.5482 6.05754 13.6933L4.67912 7.20723C4.50295 6.38091 4.40852 5.83677 4.44866 5.44126L4.45202 5.42275C4.45574 5.40244 4.45764 5.38228 4.45881 5.36221C4.52698 4.92681 4.78083 4.67886 5.30486 4.41304L7.28288 3.41001L6.58762 4.78726C6.48952 4.98154 6.53186 5.21733 6.69148 5.36533L7.70915 6.30908L7.04519 7.81055C6.97478 7.96982 6.99446 8.15449 7.09695 8.29531L11.0098 13.6727V21.4317L7.7487 23.9499ZM15.2474 23.9499L11.9864 21.4317V13.6727L15.8993 8.29531C16.0018 8.15449 16.0215 7.96978 15.951 7.81055L15.2871 6.30908L16.3048 5.36533C16.4644 5.21733 16.5067 4.98154 16.4086 4.78726L15.7134 3.41001L17.6913 4.41299C18.215 4.67861 18.4689 4.92637 18.5374 5.36138C18.5385 5.38169 18.5405 5.40215 18.5442 5.42271L18.5479 5.44316C18.5877 5.83857 18.4937 6.38232 18.3184 7.20737L16.9386 13.6931C16.7566 14.5481 16.6618 15.0796 16.6324 15.5598H14.6469C14.3773 15.5598 14.1587 15.7784 14.1587 16.048C14.1587 16.3177 14.3773 16.5363 14.6469 16.5363H16.6548C16.6839 16.8562 16.7311 17.2225 16.7922 17.6951L16.8155 17.8765C16.8168 17.8862 16.8187 17.8957 16.8206 17.9053C16.8215 17.9099 16.822 17.9146 16.823 17.9192C16.823 17.919 16.8231 17.9194 16.823 17.9192L17.3034 20.0877C17.3035 20.0884 17.3037 20.0891 17.3038 20.0897L17.9063 22.8092L15.2474 23.9499ZM18.1616 19.4465L17.893 18.2344L20.8111 17.8821L21.0324 19.0996L18.1616 19.4465Z" fill="black"/>
<path d="M19.8708 12.6709V12.6723C19.8708 12.9419 20.0895 13.1599 20.3591 13.1599C20.6287 13.1599 20.8474 12.9406 20.8474 12.6709C20.8474 12.4012 20.6287 12.1826 20.3591 12.1826C20.0895 12.1826 19.8708 12.4013 19.8708 12.6709Z" fill="black"/>
</svg>

<svg width="23" height="25" fill="none" xmlns="http://www.w3.org/2000/svg"><path d="M22.086 19.435l-.853-4.695a.488.488 0 00-.961.175l.364 2.005-2.914.351c-.189-1.477-.184-1.704.172-3.375l1.181-5.554.411 2.259a.488.488 0 10.961-.175l-.942-5.178c-.093-.696-.467-1.247-1.372-1.706L14.98 1.943 14.227.286A.488.488 0 0013.783 0h-4.57a.488.488 0 00-.444.286l-.753 1.657-3.153 1.599c-.905.459-1.28 1.01-1.372 1.705L.911 19.436a.488.488 0 00.421.572l3.29.397-.573 2.589a.489.489 0 00.284.554l3.295 1.413c.162.07.35.046.49-.062l3.38-2.61 3.38 2.61a.488.488 0 00.49.062l3.295-1.413a.488.488 0 00.284-.554l-.573-2.588 3.29-.398a.488.488 0 00.422-.572zm-7.49-16.07l.775 1.534-1.003.93a.488.488 0 00-.115.556l.691 1.563-2.958 4.065V8.308l2.61-4.943zM9.529.977h3.94l.595 1.308-2.565 4.856-2.565-4.856.595-1.308zm-1.13 2.388l2.61 4.943v3.705L8.053 7.948l.691-1.563a.488.488 0 00-.114-.555L7.625 4.9l.774-1.535zM3.921 8.34l1.181 5.557c.356 1.67.36 1.898.172 3.375L2.36 16.92l1.561-8.58zM1.964 19.1l.221-1.217 2.918.352-.268 1.212-2.871-.346zm5.785 4.85l-2.66-1.14.603-2.72v-.001l.481-2.168.003-.015.005-.028.023-.182c.061-.472.108-.839.137-1.159H8.35a.488.488 0 000-.976H6.364c-.03-.48-.124-1.012-.306-1.867L4.679 7.207c-.176-.826-.27-1.37-.23-1.766l.003-.018a.494.494 0 00.007-.06c.068-.436.322-.684.846-.95L7.283 3.41l-.695 1.377a.488.488 0 00.103.578l1.018.944-.664 1.502a.49.49 0 00.052.484l3.913 5.378v7.759L7.749 23.95zm7.498 0l-3.26-2.517v-7.76l3.912-5.377a.488.488 0 00.052-.484l-.664-1.502 1.018-.944a.488.488 0 00.104-.578l-.696-1.377 1.978 1.003c.524.266.778.513.846.948l.007.062.004.02c.04.396-.054.94-.23 1.764l-1.38 6.486c-.181.855-.276 1.387-.306 1.867h-1.985a.488.488 0 000 .976h2.008c.029.32.076.686.137 1.16l.023.18.006.03.002.013.48 2.169v.002l.603 2.72-2.659 1.14zm2.915-4.503l-.269-1.212 2.918-.352.221 1.218-2.87.346z" fill="#000"/><path d="M19.87 12.67v.002a.488.488 0 100-.001z" fill="#000"/></svg>
